packages/tokens/icons/rocket/size16Px.svg

<svg viewBox="0 0 16 16" fill="none" xmlns="http://www.w3.org/2000/svg" width="1em" height="1em"><path d="M5.85718 5.5L10.1429 5.5" stroke="currentColor"/><path d="M5.5 7.39262C5.5 5.68808 6.10115 4.03815 7.19768 2.73313C7.6168 2.23433 8.38457 2.23443 8.80356 2.73337C9.8993 4.03821 10.5 5.68758 10.5 7.39147L10.5 12C10.5 12.2761 10.2761 12.5 10 12.5H6C5.72386 12.5 5.5 12.2761 5.5 12L5.5 7.39262Z" stroke="currentColor"/><path d="M12.5 8.96652C12.5 8.76787 12.3824 8.58806 12.2004 8.50844L10.5 7.76451V12.3605L11.7996 12.9291C12.1299 13.0736 12.5 12.8316 12.5 12.471V8.96652Z" stroke="currentColor"/><path d="M3.5 8.96652C3.5 8.76787 3.6176 8.58806 3.79959 8.50844L5.5 7.76451L5.5 12.3605L4.20041 12.9291C3.87007 13.0736 3.5 12.8316 3.5 12.471L3.5 8.96652Z" stroke="currentColor"/><circle cx="8" cy="8" r="0.5" stroke="currentColor"/><path d="M4.98633 14.5L5.97263 12.5H10L10.9863 14.5H4.98633Z" stroke="currentColor" stroke-linejoin="round"/></svg>

<svg xmlns="http://www.w3.org/2000/svg" fill="none" viewBox="0 0 16 16" width="1em" height="1em"><path stroke="currentColor" d="M5.857 5.5h4.286M5.5 7.393c0-1.705.601-3.355 1.698-4.66a1.049 1.049 0 0 1 1.606 0A7.243 7.243 0 0 1 10.5 7.391V12a.5.5 0 0 1-.5.5H6a.5.5 0 0 1-.5-.5V7.393Z"/><path stroke="currentColor" d="M12.5 8.967a.5.5 0 0 0-.3-.459l-1.7-.743v4.596l1.3.568a.5.5 0 0 0 .7-.458V8.967Zm-9 0a.5.5 0 0 1 .3-.459l1.7-.743v4.596l-1.3.568a.5.5 0 0 1-.7-.458V8.967Z"/><circle cx="8" cy="8" r=".5" stroke="currentColor"/><path stroke="currentColor" stroke-linejoin="round" d="m4.986 14.5.987-2H10l.986 2h-6Z"/></svg>
